resources/svg/lightning-cable-o.svg

<svg xmlns="http://www.w3.org/2000/svg" viewBox="0 0 15 15" fill="none"><path d="M4.5 5.5H10.5M4.5 5.5C3.94772 5.5 3.5 5.94772 3.5 6.5V11.5C3.5 12.0523 3.94772 12.5 4.5 12.5H10.5C11.0523 12.5 11.5 12.0523 11.5 11.5V6.5C11.5 5.94772 11.0523 5.5 10.5 5.5M4.5 5.5V1.5C4.5 0.947715 4.94772 0.5 5.5 0.5H9.5C10.0523 0.5 10.5 0.947715 10.5 1.5V5.5M9 2.5H6M5.5 13V15M9.5 13V15" stroke="black"/></svg>

<svg xmlns="http://www.w3.org/2000/svg" viewBox="0 0 15 15" fill="none"><path d="M4.5 5.5h6m-6 0a1 1 0 00-1 1v5a1 1 0 001 1h6a1 1 0 001-1v-5a1 1 0 00-1-1m-6 0v-4a1 1 0 011-1h4a1 1 0 011 1v4M9 2.5H6M5.5 13v2m4-2v2" stroke="currentColor"/></svg>
